X: 1
T: Old Crossroads, The
M: 4/4
L: 1/8
R: barndance
K: Emin
|: B, |
E>^D EF G>F GA | B2 e2 dB- BA | G>F GB AF DE | F2 E2 DB,- B,G |
     E>^D EF G>F GA | B2 e2 dB- BA | G>F GB AF DE | FG/F/ ED E3 :|
|: A |
Be-ee e2 de | f2 e2 dB-B2 | A3 B d3 e | dB G/A/B/c/ d2 BA |
    Be-ee e2 de | fg/f/ ef/e/ dB- BA | G>F GB AF DE | F2 E>E E3 :|
